src/Assets/fb.svg

<svg height="44" viewBox="0 0 44 44" width="44" xmlns="http://www.w3.org/2000/svg"><g fill="none" fill-rule="evenodd" transform="translate(-1 -1)"><path d="m23 .999994c12.150256 0 22.000006 9.849704 22.000006 22.000006 0 12.150348-9.84975 22.000052-22.000006 22.000052-12.150302 0-21.99996-9.849704-21.99996-22.000052 0-12.150302 9.849658-22.000006 21.99996-22.000006z" fill="#880d1e"/><path d="m20.729166 17.48632v2.47826h-1.729145v3.0302h1.729145v9.00512h3.552098v-9.00512h2.383524s.223245-1.45316.331474-3.04146h-2.701611v-2.07206c0-.30976.387277-.72642.770077-.72642h1.935307v-3.15472h-2.631398c-3.727284 0-3.639471 3.03322-3.639471 3.4862z" fill="#fff"/></g></svg>

<?xml version="1.0" encoding="UTF-8"?>
<svg width="44px" height="44px" viewBox="0 0 44 44" version="1.1" xmlns="http://www.w3.org/2000/svg" xmlns:xlink="http://www.w3.org/1999/xlink">
    <!-- Generator: Sketch 53.2 (72643) - https://sketchapp.com -->
    <title>fb</title>
    <desc>Created with Sketch.</desc>
    <g id="Symbols" stroke="none" stroke-width="1" fill="none" fill-rule="evenodd">
        <g id="Desktop-HD/Common/Footer" transform="translate(-1135.000000, -77.000000)">
            <g id="Desktop-HD-Footer">
                <g id="social-media" transform="translate(1083.000000, 42.000000)">
                    <g id="fb" transform="translate(51.000000, 34.000000)">
                        <path d="M23,0.999994 C35.150256,0.999994 45.000006,10.849698 45.000006,23 C45.000006,35.150348 35.150256,45.000052 23,45.000052 C10.849698,45.000052 1.00004,35.150348 1.00004,23 C1.00004,10.849698 10.849698,0.999994 23,0.999994 Z" id="stroke" fill="#880D1E"></path>
                        <path d="M20.729166,17.48632 L20.729166,19.96458 L19.000021,19.96458 L19.000021,22.99478 L20.729166,22.99478 L20.729166,31.9999 L24.281264,31.9999 L24.281264,22.99478 L26.664788,22.99478 C26.664788,22.99478 26.888033,21.54162 26.996262,19.95332 L24.294651,19.95332 L24.294651,17.88126 C24.294651,17.5715 24.681928,17.15484 25.064728,17.15484 L27.000035,17.15484 L27.000035,14.00012 L24.368637,14.00012 C20.641353,14.00012 20.729166,17.03334 20.729166,17.48632 Z" id="logo" fill="#FFFFFF"></path>
                    </g>
                </g>
            </g>
        </g>
    </g>
</svg>
